public/img/values/value-5.svg

<svg width="38" height="54" viewBox="0 0 38 54" fill="none" xmlns="http://www.w3.org/2000/svg">
<path d="M19.0002 11C16.0668 11 13.6668 8.60004 13.6668 5.66671C13.6668 2.73337 16.0668 0.333374 19.0002 0.333374C21.9335 0.333374 24.3335 2.73337 24.3335 5.66671C24.3335 8.60004 21.9335 11 19.0002 11ZM32.3335 0.333374H37.6668V1.40004C37.4002 7.26671 35.5335 11.8 31.5335 15C30.2002 16.0667 28.6002 16.8667 27.0002 17.4V53.6667H21.6668V37.6667H16.3335V53.6667H11.0002V21.9334C10.2002 22.2 9.66683 22.4667 9.40016 22.7334C7.00016 24.6 5.6935 27 5.66683 31V32.3334H0.333496V31C0.333496 25.6667 2.22683 21.4267 5.96016 18.2267C8.8935 15.8267 13.6668 13.6667 19.0002 13.6667C24.3335 13.6667 26.1468 12.44 28.2802 10.84C30.9468 8.70671 32.3335 5.66671 32.3335 1.66671V0.333374Z" fill="#0F172A"/>
</svg>

<svg width="38" height="54" fill="none" xmlns="http://www.w3.org/2000/svg"><path d="M19 11a5.35 5.35 0 0 1-5.33-5.33c0-2.94 2.4-5.34 5.33-5.34s5.33 2.4 5.33 5.34C24.33 8.6 21.93 11 19 11ZM32.33.33h5.34V1.4c-.27 5.87-2.14 10.4-6.14 13.6A14.82 14.82 0 0 1 27 17.4v36.27h-5.33v-16h-5.34v16H11V21.93c-.8.27-1.33.54-1.6.8C7 24.6 5.7 27 5.67 31v1.33H.33V31c0-5.33 1.9-9.57 5.63-12.77 2.93-2.4 7.7-4.56 13.04-4.56 5.33 0 7.15-1.23 9.28-2.83 2.67-2.13 4.05-5.17 4.05-9.17V.33Z" fill="#0F172A"/></svg>
